Sources/Icon/Icons.xcassets/BrandLogos/tori.imageset/tori.svg

<svg width="66" height="33" viewBox="0 0 66 33" fill="none" xmlns="http://www.w3.org/2000/svg">
<path fill-rule="evenodd" clip-rule="evenodd" d="M65.3314 3.93056C65.3097 6.03217 63.6018 7.72082 61.5105 7.70836C59.4193 7.6959 57.7314 5.98701 57.7345 3.8853C57.7376 1.78358 59.4304 0.0796633 61.5216 0.0733543C62.5394 0.0655048 63.5172 0.470294 64.2342 1.19621C64.9512 1.92212 65.3467 2.90786 65.3314 3.93056ZM29.3883 10.3988C23.0331 10.3988 18.3458 15.0312 18.3458 21.236C18.3458 27.4409 23.0331 32.0732 29.3883 32.0732C35.7646 32.0732 40.473 27.4408 40.473 21.236C40.473 15.0312 35.7646 10.3988 29.3883 10.3988V10.3988ZM29.3878 15.5618C32.4915 15.5618 34.8351 17.8992 34.8351 21.2354C34.8351 24.5716 32.4915 26.909 29.3878 26.909C26.2841 26.909 23.9616 24.5716 23.9616 21.2354C23.9616 17.8993 26.2841 15.5618 29.3878 15.5618V15.5618ZM53.5594 10.3973C51.0469 10.3973 49.0833 11.2686 47.7954 13.2022V10.9498H42.4536V31.5406H47.9643V20.3208C47.9643 17.2609 50.3401 15.8797 53.1753 15.8797C55.5451 15.8797 56.4308 16.3472 56.4308 16.3472V10.9498C55.5204 10.5737 54.5438 10.3857 53.5594 10.3973V10.3973ZM64.309 10.9503H58.7984V31.541H64.309V10.9503ZM16.8699 10.9499H9.45894V5.40381H3.94826V10.9499H0V15.8798H3.94826V23.8484C3.94826 29.182 6.54524 32.0719 11.6125 32.0719C14.0945 32.0853 16.5148 31.2952 18.5152 29.8185L16.2036 25.6658C15.0846 26.3458 13.8295 26.9082 12.5204 26.9082C10.8102 26.9082 9.45895 25.9733 9.45895 23.4021V15.8798H16.8699L16.8699 10.9499Z" fill="#F94F55"/>
</svg>

<svg width="66" height="32" viewBox="0 0 66 32" fill="none" xmlns="http://www.w3.org/2000/svg">
  <path fill-rule="evenodd" clip-rule="evenodd" d="M65.331 3.857c-.021 2.102-1.73 3.79-3.82 3.778-2.092-.012-3.78-1.721-3.777-3.823C57.738 1.71 59.43.006 61.522 0a3.772 3.772 0 0 1 2.712 1.123 3.81 3.81 0 0 1 1.097 2.734Zm-35.943 6.469c-6.355 0-11.042 4.632-11.042 10.837S23.033 32 29.388 32c6.377 0 11.085-4.632 11.085-10.837s-4.708-10.837-11.085-10.837Zm0 5.163c3.104 0 5.447 2.337 5.447 5.673s-2.343 5.674-5.447 5.674-5.426-2.338-5.426-5.674c0-3.336 2.322-5.673 5.426-5.673Zm24.171-5.165c-2.512 0-4.476.871-5.764 2.805v-2.252h-5.341v20.59h5.51v-11.22c0-3.06 2.376-4.44 5.211-4.44 2.37 0 3.256.467 3.256.467v-5.397a7.293 7.293 0 0 0-2.872-.553Zm10.75.553h-5.51v20.59h5.51v-20.59Zm-47.44 0H9.46V5.33h-5.51v5.546H0v4.93h3.948v7.968C3.948 29.11 6.545 32 11.613 32a11.516 11.516 0 0 0 6.902-2.254l-2.311-4.152c-1.12.68-2.375 1.242-3.684 1.242-1.71 0-3.061-.935-3.061-3.506v-7.522h7.41v-4.93Z" fill="#F94F55"/>
</svg>
